src/svg/56/user_microphone_outline_56.svg

<svg fill="none" height="56" viewBox="0 0 56 56" width="56" xmlns="http://www.w3.org/2000/svg"><path clip-rule="evenodd" d="m28 24c4.1421 0 7.5-3.3579 7.5-7.5s-3.3579-7.5-7.5-7.5-7.5 3.3579-7.5 7.5 3.3579 7.5 7.5 7.5zm0 3c5.799 0 10.5-4.701 10.5-10.5s-4.701-10.5-10.5-10.5-10.5 4.701-10.5 10.5 4.701 10.5 10.5 10.5zm-12.8961 5.1187c3.368-1.7681 7.968-2.6187 12.8961-2.6187 1.0446 0 2.0708.0382 3.0708.1145.826.063 1.4446.7837 1.3815 1.6098-.063.826-.7837 1.4445-1.6097 1.3815-.9208-.0703-1.8708-.1058-2.8426-.1058-4.6492 0-8.7157.8124-11.5016 2.275-2.6906 1.4125-3.8984 3.2237-3.8984 5.4679 0 1.6154.3264 2.0169.3459 2.0387l.0001.0001c.0016.0017.0075.0083.0253.0199.0196.0127.0647.0385.1498.0676.1775.0608.5132.1308 1.1035.1308h11.7754c.8284 0 1.5.6716 1.5 1.5s-.6716 1.5-1.5 1.5h-11.7754c-1.6054 0-2.7585-.375-3.5123-1.2156-.75564-.8428-1.11232-2.1564-1.11232-4.0415 0-3.667 2.13232-6.3541 5.50392-8.1242zm25.3961-2.6187c-3.3137 0-6 2.6863-6 6v3c0 3.3137 2.6863 6 6 6s6-2.6863 6-6v-3c0-3.3137-2.6863-6-6-6zm-3 6c0-1.6569 1.3431-3 3-3s3 1.3431 3 3v3c0 1.6569-1.3431 3-3 3s-3-1.3431-3-3zm4.5 14.403c3.3873-.4414 6.3106-2.3572 8.105-5.0769.4562-.6915.2655-1.6219-.426-2.0782-.6914-.4562-1.6218-.2655-2.0781.426-1.5229 2.3083-4.135 3.8261-7.1009 3.8261s-5.578-1.5178-7.1009-3.8261c-.4563-.6915-1.3867-.8822-2.0782-.426-.6914.4563-.8822 1.3867-.4259 2.0782 1.7944 2.7197 4.7177 4.6355 8.105 5.0769v2.097c0 .8284.6716 1.5 1.5 1.5s1.5-.6716 1.5-1.5z" fill="currentColor" fill-rule="evenodd"/></svg>

<svg width="56" height="56" viewBox="0 0 56 56" fill="none" xmlns="http://www.w3.org/2000/svg"><path fill-rule="evenodd" clip-rule="evenodd" d="M28 24C32.1421 24 35.5 20.6421 35.5 16.5C35.5 12.3579 32.1421 9 28 9C23.8579 9 20.5 12.3579 20.5 16.5C20.5 20.6421 23.8579 24 28 24ZM28 27C33.799 27 38.5 22.299 38.5 16.5C38.5 10.701 33.799 6 28 6C22.201 6 17.5 10.701 17.5 16.5C17.5 22.299 22.201 27 28 27ZM15.1039 32.1187C18.4719 30.3506 23.0719 29.5 28 29.5C29.0446 29.5 30.0708 29.5382 31.0708 29.6145C31.8968 29.6775 32.5154 30.3982 32.4523 31.2243C32.3893 32.0503 31.6686 32.6688 30.8426 32.6058C29.9218 32.5355 28.9718 32.5 28 32.5C23.3508 32.5 19.2843 33.3124 16.4984 34.775C13.8078 36.1875 12.6 37.9987 12.6 40.2429C12.6 41.8583 12.9264 42.2598 12.9459 42.2816L12.946 42.2817C12.9476 42.2834 12.9535 42.29 12.9713 42.3016C12.9909 42.3143 13.036 42.3401 13.1211 42.3692C13.2986 42.43 13.6343 42.5 14.2246 42.5H26C26.8284 42.5 27.5 43.1716 27.5 44C27.5 44.8284 26.8284 45.5 26 45.5H14.2246C12.6192 45.5 11.4661 45.125 10.7123 44.2844C9.95666 43.4416 9.59998 42.128 9.59998 40.2429C9.59998 36.5759 11.7323 33.8888 15.1039 32.1187ZM40.5 29.5C37.1863 29.5 34.5 32.1863 34.5 35.5V38.5C34.5 41.8137 37.1863 44.5 40.5 44.5C43.8137 44.5 46.5 41.8137 46.5 38.5V35.5C46.5 32.1863 43.8137 29.5 40.5 29.5ZM37.5 35.5C37.5 33.8431 38.8431 32.5 40.5 32.5C42.1569 32.5 43.5 33.8431 43.5 35.5V38.5C43.5 40.1569 42.1569 41.5 40.5 41.5C38.8431 41.5 37.5 40.1569 37.5 38.5V35.5ZM42 49.903C45.3873 49.4616 48.3106 47.5458 50.105 44.8261C50.5612 44.1346 50.3705 43.2042 49.679 42.7479C48.9876 42.2917 48.0572 42.4824 47.6009 43.1739C46.078 45.4822 43.4659 47 40.5 47C37.5341 47 34.922 45.4822 33.3991 43.1739C32.9428 42.4824 32.0124 42.2917 31.3209 42.7479C30.6295 43.2042 30.4387 44.1346 30.895 44.8261C32.6894 47.5458 35.6127 49.4616 39 49.903V52C39 52.8284 39.6716 53.5 40.5 53.5C41.3284 53.5 42 52.8284 42 52V49.903Z" fill="currentColor"/></svg>
